X:143
T:Mechoeteneste Majne
O:klezmer
M:2/4
L:1/8
Q:1/4=120
K:A
V:1
b2 |e'z b3/2 a/|g/a/(b b)g |aa g=f |
eg/b/ e'e'/e'/ ||e'2 c'3/2 b/|g/a/b2 e/e/|a ag =f|
e e3 |





